X:7286
T:Hum the Hummer. GS.117
M:6/8
L:1/8
Q:120
S:George Spencer m/s, Leeds,1831
R:Jig
O:England
A:Leeds
N:'George Spencer' written at the end of the musi
H:183
Z:vmp.Cherri Graebe
K:D major
A | dAF BGE | AFD d2e | fdB ecA | (d3 d2) E/F/ | AFD BGE |! cAF g2f | ec
A ^GEG |
 (A3 A2) :||: c | ecA dfd | BdB GGf | !gec fF^A | (B3 B2) c | dBG GEd |
 eBe cBA | dAF BGA | (D3D2) :||
